symbols/web/door_sliding/materialsymbolsoutlined/door_sliding_wght200gradN25_40px.svg

<svg xmlns="http://www.w3.org/2000/svg" height="40" width="40"><path d="M16.375 21.167q-.5 0-.854-.355-.354-.354-.354-.854t.354-.854q.354-.354.854-.354t.854.354q.354.354.354.854 0 .459-.354.834-.354.375-.854.375Zm7.25 0q-.5 0-.854-.355-.354-.354-.354-.854t.354-.854q.354-.354.854-.354t.854.354q.354.354.354.854 0 .459-.354.834-.354.375-.854.375Zm-16 12.041v-1.333h1.75V9.125q0-.958.708-1.646.709-.687 1.667-.687h16.5q1 0 1.688.687.687.688.687 1.646v22.75h1.75v1.333Zm3.083-1.333h8.625V8.125H11.75q-.375 0-.708.313-.334.312-.334.729Zm9.959 0h8.625V9.167q0-.417-.334-.729-.333-.313-.708-.313h-7.583Zm-.625-12.583Z"/></svg>

<svg xmlns="http://www.w3.org/2000/svg" height="40" width="40"><path d="M16.375 21.167Q15.875 21.167 15.521 20.812Q15.167 20.458 15.167 19.958Q15.167 19.458 15.521 19.104Q15.875 18.75 16.375 18.75Q16.875 18.75 17.229 19.104Q17.583 19.458 17.583 19.958Q17.583 20.417 17.229 20.792Q16.875 21.167 16.375 21.167ZM23.625 21.167Q23.125 21.167 22.771 20.812Q22.417 20.458 22.417 19.958Q22.417 19.458 22.771 19.104Q23.125 18.75 23.625 18.75Q24.125 18.75 24.479 19.104Q24.833 19.458 24.833 19.958Q24.833 20.417 24.479 20.792Q24.125 21.167 23.625 21.167ZM7.625 33.208V31.875H9.375V9.125Q9.375 8.167 10.083 7.479Q10.792 6.792 11.75 6.792H28.25Q29.25 6.792 29.938 7.479Q30.625 8.167 30.625 9.125V31.875H32.375V33.208ZM10.708 31.875H19.333V8.125H11.75Q11.375 8.125 11.042 8.438Q10.708 8.75 10.708 9.167ZM20.667 31.875H29.292V9.167Q29.292 8.75 28.958 8.438Q28.625 8.125 28.25 8.125H20.667ZM20.042 19.292Q20.042 19.292 20.042 19.292Q20.042 19.292 20.042 19.292Q20.042 19.292 20.042 19.292Q20.042 19.292 20.042 19.292Z"/></svg>
